build/img/svg/star.svg

<svg width="14" height="14" viewBox="0 0 14 14" fill="none" xmlns="http://www.w3.org/2000/svg">
<path d="M7 0L7.91448 4.48749L11.4995 1.63769L9.31555 5.66312L13.8937 5.78446L9.63314 7.46429L13.0622 10.5L8.71866 9.04822L9.39414 13.5778L7 9.67376L4.60586 13.5778L5.28134 9.04822L0.937822 10.5L4.36686 7.46429L0.106346 5.78446L4.68445 5.66312L2.50049 1.63769L6.08552 4.48749L7 0Z" fill="#434343"/>
</svg>

<svg width="14" height="14" fill="none" xmlns="http://www.w3.org/2000/svg"><path d="M7 0l.914 4.487 3.585-2.85-2.183 4.026 4.578.121-4.26 1.68 3.428 3.036L8.72 9.048l.675 4.53L7 9.674l-2.394 3.904.675-4.53L.938 10.5l3.429-3.036-4.26-1.68 4.577-.12L2.5 1.637l3.586 2.85L7 0z" fill="#434343"/></svg>
